!!!COM: Bach, Johann Sebastian
!!!CDT: 1685/3//-1750/7/28/
!!!OTL@@DE: Wenn wir in hoechsten Noeten sein
!!!AGN: 4-Part Chorale; Chorale Prelude
!!!SCT: BH 068
!!!SCT: BWV 431
**harm	**root	**kern	**kern	**kern	**kern
!	!	!bass	!tenor	!alto	!soprno
*	*Iorgan	*Iorgan	*Iorgan	*Iorgan	*Iorgan
*	*	*clefF4	*clefF4	*clefG2	*clefG2
*M4/4	*M4/4	*M4/4	*M4/4	*M4/4	*M4/4
*met(c)	*met(c)	*met(c)	*met(c)	*met(c)	*met(c)
*MM60	*MM60	*MM60	*MM60	*MM60	*MM60
*k[f#c#g#d#a#]	*k[f#c#g#d#a#]	*k[f#c#g#d#a#]	*k[f#c#g#d#a#]	*k[f#c#g#d#a#]	*k[f#c#g#d#a#]
*B:	*B:	*B:	*B:	*B:	*B:
I	4FF	8B	8d#	[4f#	4b
.	.	8A#	8c#	.	.
=1	=1	=1	=1	=1	=1
viiob/V	4BB	4G#	4B	8f#]	4b
.	.	.	.	8e#	.
Vb	8CC	8A#	8f#	[4f#	4cc#
V7	8CC	8F#	8ey	.	.
I	4FF	4B	8d#	8f#]	4dd#
.	.	.	8e	8g#	.
V	4CC	4F#	4f#	4a#	8cc#
.	.	.	.	.	8dd#
=2	=2	=2	=2	=2	=2
IVb	8BB-	8G#	8B	8b	4ee
V7b	8CC	8A#	8f#	[8cc#	.
I	4FF	4B	4f#	8cc#]	4dd#
.	.	.	.	[8b	.
ii7b	8GG	4E	8g#	8b]	4.cc#
iib	8GG	.	8e	16a#	.
.	.	.	.	16g#	.
V	4CC	4F#	8c#	4a#	.
.	.	.	16f#	.	8cc#
.	.	.	16e	.	.
=3	=3	=3	=3	=3	=3
I;	2FF;	2BB;	2d#;	2f#;	2b;
r	4r	4r	4r	4r	4r
I	4FF	8B	4f#	[4b	4dd#
.	.	8A	.	.	.
=4	=4	=4	=4	=4	=4
IVb	8BB-	8G#	8g#	8b]	4ee
V7b	8CC	8A#	8f#	[8cc#	.
I	4FF	4B	4f#	8cc#]	4dd#
.	.	.	.	[8b	.
V7b/V	8GG	8E#	8g#	8b]	4cc#
V	8CC	8F#	4f#	8a#	.
viio/V	4BB	4G#	.	4g#	4b
.	.	.	8e#	.	.
!!linebreak: 2
=5	=5	=5	=5	=5	=5
V	4CC	8F#	4f#	4c#	4a#
.	.	8Ey	.	.	.
Ib	4FF	8D#	4B	4f#	4b
.	.	8BB	.	.	.
V;	4CC;	4F#;	4A#;	4f#;	4cc#;
iii	4AA	4D#	4d#	8a#	4ff#
.	.	.	.	8b#	.
=6	=6	=6	=6	=6	=6
ii	8GG	4C#	8g#	8cc#	4ee
viioD7/vi	8CC#	.	8f##	8a#	.
vi	4DD	8G#	4g#	8b	4dd#
.	.	8F#	.	8a#	.
Vb/V	4GG	4E#	4c#	[4g#	8cc#
.	.	.	.	.	8b
V	4CC	4F#	4c#	8g#]	4a#
.	.	.	.	[8f#	.
=7	=7	=7	=7	=7	=7
I	4FF	4BB	4d#	8f#]	4b
.	.	.	.	16g#	.
.	.	.	.	16f#	.
V/V	4GG	4C#	8c#	4e#	4g#
.	.	.	8B	.	.
V;	4CC;	4F#;	4A#;	4c#;	4f#;
I	4FF	4BB	4f#	8b	4dd#
.	.	.	.	8a	.
=8	=8	=8	=8	=8	=8
ii	4GG	4C#	4e	8g#	4ee
.	.	.	.	8a#	.
Ib	4FF	8D#	[4f#	[4b	4dd#
.	.	8E	.	.	.
V	4CC	4F#	8.f#]	8b]	4cc#
.	.	.	.	[8a#	.
.	.	.	16e	.	.
vi	8DD	4G#	8d#	8a#]	4b
IVb	8BB-	.	8e	16g#	.
.	.	.	.	16a#	.
=9	=9	=9	=9	=9	=9
Ib	4FF	8D#	4f#	4.b	4dd#
.	.	8E	.	.	.
V	4CC	4F#	8.f#	.	4cc#
.	.	.	.	8a#	.
.	.	.	16e	.	.
I;	4FF;	4BB;	4d#;	4f#;	4b;
==	==	==	==	==	==
*-	*-	*-	*-	*-	*-
!!chor2scor: -l 2 -s 0.6 -o %b.pmx
!!!YEC: Copyright 1994, David Huron
!!!YEC: Changes/Additions Copyright 2001 by Craig Stuart Sapp
!!!license: GNU General Public License (http://www.gnu.org/copyleft/gpl.html)
!!!SMA: 371 Bach Chorales, edited by Ludwig Erk, C.F. Peters
!!!PDT: 1850, 1865
!!!ONB: Harmony and Root analysis done manually
